Origami/22x22/apps/torchlight-2.svg

<svg width="22" height="22" version="1" xmlns="http://www.w3.org/2000/svg">
 <rect transform="matrix(0,-1,-1,0,0,0)" x="-21" y="-21" width="20" height="20" rx="1" ry="1" style="fill:#4f4f4f"/>
 <path d="m6 4.5v3.5c0-0.5 1.2322815-1.5 2-1.5h2v9.5l-1 1.5h4l-1-1.5v-6.820313c0.413688-2.9229255 1.878797-3.1599835 3.974609-3.679687h-9.1269528l-0.8476562-1zm-2 5 1 1.5v6l-1 1.5h5l-1-1.5v-6l1-1.5h-5zm9 0 1 1.5v6l-1 1.5h5l-1-1.5v-6l1-1.5h-5z" style="opacity:.2"/>
 <path d="m2 1c-0.554 0-1 0.446-1 1v0.5c0-0.554 0.446-1 1-1h18c0.554 0 1 0.446 1 1v-0.5c0-0.554-0.446-1-1-1h-18z" style="fill:#ffffff;opacity:.1"/>
 <path d="m2 21.5c-0.554 0-1-0.446-1-1v-0.5c0 0.554 0.446 1 1 1h18c0.554 0 1-0.446 1-1v0.5c0 0.554-0.446 1-1 1h-18z" style="opacity:.2"/>
 <path d="m6 4v3.5c0-0.5 1.2322815-1.5 2-1.5h2v9.5l-1 1.5h4l-1-1.5v-6.820937c0.413688-2.922926 1.87877-3.1593595 3.974582-3.679063h-9.1264005z" style="fill:#ff8e19"/>
 <path d="m4 9h5l-1 1.5v6l1 1.5h-5l1-1.5v-6z" style="fill:#1289db"/>
 <path d="m13 9h5l-1 1.5v6l1 1.5h-5l1-1.5v-6z" style="fill:#1289db"/>
 <path d="m6 4v0.5l0.8476562 1h7.3730468c0.517749-0.1967762 1.10103-0.3381048 1.753906-0.5h-9.1269528l-0.8476562-1zm-2 5 0.3339844 0.5h4.3320312l0.3339844-0.5h-5zm9 0 0.333984 0.5h4.332032l0.333984-0.5h-5zm-3 6.5-1 1.5h0.333984l0.666016-1v-0.5zm2 0v0.5l0.666016 1h0.333984l-1-1.5zm-7 1-1 1.5h0.3339844l0.6660156-1v-0.5zm3 0v0.5l0.6660156 1h0.3339844l-1-1.5zm6 0-1 1.5h0.333984l0.666016-1v-0.5zm3 0v0.5l0.666016 1h0.333984l-1-1.5z" style="fill:#ffffff;opacity:.1"/>
</svg>

<svg xmlns="http://www.w3.org/2000/svg" width="22" height="22" version="1">
 <rect style="fill:#4f4f4f" width="20" height="20" x="-21" y="-21" rx="1" ry="1" transform="matrix(0,-1,-1,0,0,0)"/>
 <path style="opacity:0.2" d="M 6,4.5 6,8 C 6,7.5 7.2322815,6.5 8,6.5 l 2,0 0,9.5 -1,1.5 4,0 L 12,16 12,9.179687 C 12.413688,6.2567615 13.878797,6.0197035 15.974609,5.5 L 6.8476562,5.5 6,4.5 Z m -2,5 1,1.5 0,6 -1,1.5 5,0 L 8,17 8,11 9,9.5 4,9.5 Z m 9,0 1,1.5 0,6 -1,1.5 5,0 -1,-1.5 0,-6 1,-1.5 -5,0 z"/>
 <path style="opacity:0.1;fill:#ffffff" d="M 2,1 C 1.446,1 1,1.446 1,2 l 0,0.5 c 0,-0.554 0.446,-1 1,-1 l 18,0 c 0.554,0 1,0.446 1,1 L 21,2 C 21,1.446 20.554,1 20,1 L 2,1 Z"/>
 <path style="opacity:0.2" d="m 2,21.5 c -0.554,0 -1,-0.446 -1,-1 L 1,20 c 0,0.554 0.446,1 1,1 l 18,0 c 0.554,0 1,-0.446 1,-1 l 0,0.5 c 0,0.554 -0.446,1 -1,1 l -18,0 z"/>
 <path style="fill:#ff8e19" d="M 6,4 6,7.5 C 6,7 7.2322815,6 8,6 l 2,0 0,9.5 -1,1.5 4,0 -1,-1.5 0,-6.820937 C 12.413688,5.756137 13.87877,5.5197035 15.974582,5 L 6.8481815,5 Z"/>
 <path style="fill:#1289db" d="m 4,9 5,0 -1,1.5 0,6 1,1.5 -5,0 1,-1.5 0,-6 z"/>
 <path style="fill:#1289db" d="m 13,9 5,0 -1,1.5 0,6 1,1.5 -5,0 1,-1.5 0,-6 z"/>
 <path style="opacity:0.1;fill:#ffffff" d="m 6,4 0,0.5 0.8476562,1 7.3730468,0 C 14.738452,5.3032238 15.321733,5.1618952 15.974609,5 L 6.8476562,5 6,4 Z M 4,9 4.3339844,9.5 8.6660156,9.5 9,9 4,9 Z m 9,0 0.333984,0.5 4.332032,0 L 18,9 13,9 Z M 10,15.5 9,17 9.333984,17 10,16 10,15.5 Z m 2,0 0,0.5 0.666016,1 L 13,17 12,15.5 Z M 5,16.5 4,18 4.3339844,18 5,17 5,16.5 Z m 3,0 L 8,17 8.6660156,18 9,18 8,16.5 Z m 6,0 -1,1.5 0.333984,0 L 14,17 14,16.5 Z m 3,0 0,0.5 0.666016,1 L 18,18 17,16.5 Z"/>
</svg>
